libs/icons/src/svg/expand.svg

<svg width="16" height="16" viewBox="0 0 16 16" fill="none" xmlns="http://www.w3.org/2000/svg">
<path fill-rule="evenodd" clip-rule="evenodd" d="M0.776123 1.77617V5.77617C0.776123 6.14436 1.0746 6.44284 1.44279 6.44284C1.81098 6.44284 2.10946 6.14436 2.10946 5.77617L2.10946 3.38565L5.63805 6.91424C5.8984 7.17459 6.32051 7.17459 6.58086 6.91424C6.84121 6.65389 6.84121 6.23178 6.58086 5.97143L3.05227 2.44284L5.44279 2.44284C5.81098 2.44284 6.10946 2.14436 6.10946 1.77617C6.10946 1.40798 5.81098 1.1095 5.44279 1.1095H1.44279C1.0746 1.1095 0.776123 1.40798 0.776123 1.77617ZM15.1094 14.4428V10.4428C15.1094 10.0746 14.8109 9.77616 14.4427 9.77616C14.0746 9.77616 13.7761 10.0746 13.7761 10.4428V12.8334L10.2475 9.30476C9.98714 9.04441 9.56503 9.04441 9.30468 9.30476C9.04433 9.56511 9.04433 9.98722 9.30468 10.2476L12.8333 13.7762L10.4427 13.7762C10.0746 13.7762 9.77608 14.0746 9.77608 14.4428C9.77608 14.811 10.0746 15.1095 10.4427 15.1095H14.4427C14.8109 15.1095 15.1094 14.811 15.1094 14.4428Z" fill="#202327"/>
</svg>

<svg xmlns="http://www.w3.org/2000/svg" viewBox="0 0 16 16" class="sageicon"><path fill-rule="evenodd" d="M.776 1.776v4a.667.667 0 1 0 1.333 0v-2.39l3.529 3.528a.667.667 0 1 0 .943-.943L3.052 2.443h2.39a.667.667 0 0 0 0-1.333h-4a.667.667 0 0 0-.666.666ZM15.11 14.443v-4a.667.667 0 0 0-1.333 0v2.39l-3.528-3.528a.667.667 0 0 0-.943.943l3.528 3.528h-2.39a.667.667 0 0 0 0 1.334h4a.667.667 0 0 0 .666-.667Z"/></svg>
